X:1
T:Title
%%score { 1 | ( 2 3 ) }
L:1/8
M:6/8
K:Bb
V:1 treble nm="Grand Piano"
V:2 bass 
V:3 bass 
V:1
 z3 z2[Q:1/4=93] [DF] | [DF]2 [DF] [DF]2 [DB] | [EB]2 [EG] [DF]2 [DF] | [DB]2 [Fd] .[Fd]2 [B,FB] | %4
[M:5/8] [Fc]-[Fc]- [Fc]3 |[M:1/8] [Fc] |[M:3/4] [Fd]2 [DB] [DF]2 [DF] | G2 B B2 G | F2 FA GA | %9
[M:5/8] [DB]-[DB]- [DB]3 |[M:1/8] [Fd] |[M:3/4] [Fd]2 [DB][DB] [DA][DB] | cB G [DF]3 | %13
 [DB][DB] [DB][DB] [FA][FB] |[M:5/8] c2 d c2 |[M:1/8] c |[M:3/4] [Fd]2 [DB][DB] [FA][B,FB] | %17
 cB G [DF]3 | [DF][DF] [DF] G2 G | B3 A G[CEA] |[M:5/8] [B,DB]-[B,DB]- [B,DB]3 |] %21
V:2
 z3 z2 [B,,B,] | [B,,B,]2 [B,,B,] [B,,B,]2 [B,,F,] | [E,G,]2 [E,B,] [B,,B,]2 [B,,B,] | %3
 [B,,F,]2 [B,,B,] z[K:treble] c[K:bass]D, |[M:5/8] [F,A,]-[F,A,]- [F,A,]3 |[M:1/8] [F,A,] | %6
[M:3/4] [B,,B,]2 [B,,F,] [B,,B,]2 [B,,B,] | [E,B,E]2 [E,G,E] [E,G,E]2 [E,B,E] | z2 z C z2 | %9
[M:5/8] [B,,B,]-[B,,B,]- [B,,B,]3 |[M:1/8] [B,,B,] | %11
[M:3/4] [B,,B,]2 [B,,F,][B,,F,] [B,,F,][B,,F,] | [E,G,E]2 [E,B,E] [B,,B,]3 | z2 z .F,3 | %14
[M:5/8][K:treble] [F,A,F]2 [B,F][K:bass] [F,A,F]2 |[M:1/8] [F,A,F] |[M:3/4] z2 z .F,3 | %17
 [E,G,E]2 [E,B,E] [B,,B,]3 | [B,,B,][B,,B,] [B,,B,] [B,E]2 E | [F,DF]3 C B,F, | %20
[M:5/8] B,,-B,,- B,,3 |] %21
V:3
 x6 | x6 | x6 | z3 .[B,,B,]3[K:treble][K:bass] |[M:5/8] x5 |[M:1/8] x |[M:3/4] x6 | x6 | %8
 [F,A,E]2 [F,A,E][F,E]- [F,B,E][E,CE] |[M:5/8] x5 |[M:1/8] x |[M:3/4] x6 | x6 | %13
 [B,,F,][B,,F,] [B,,F,]B,, C,[D,F,] |[M:5/8][K:treble] x3[K:bass] x2 |[M:1/8] x | %16
[M:3/4] [B,,B,]2 [B,,F,]B,, C,D, | x6 | z2 z E,3 | z2 z .[F,F]3 |[M:5/8] x5 |] %21

